X: 11
T:Humours of Glendart, The
T:East of Glendart
T:East at Glandart
M:6/8
R:jig
K:D
BAF AFD|~F3 DFA|BAF AFD|FED EFA|BAF AFD|FEF DFA|dcB AFE|FDD D2A:|
def d2B|AFA AFA|def d2f|ede fdB|def d2B|AFA ABc|dcB AFE|FDD D2A:|

